X: 1089
T: Hâl-i Ruhsârına...
C: Küçük Mehmed Ağa
O: Turkey
F: http://compmusic.upf.edu/node/140
N: dilkeshaveran--agirsemai--agir_aksaksemai--hal-i_ruhsarina--kucuk_mehmet_aga
N: makam= dilkeshaveran
N: form= agirsemai
N: usul= agir_aksaksemai = 10/4
M: 10/4
L: 1/16
K: C _2/4B ^3/4f  
Q: 1/4=75
%%MIDI tuningsystem comma53
d2e8-e2 e2=f2 e2d2 edcd c2d2 e8 z4  | \
w:  Ah  *  *  *  *  *  hâl_ *  *  *  *  i  ruh  | 
g3=f f3e e3d d2e2 d2c2 _3/4e2d2 c2_1/4B2 B2c2 B2A2 A4  | 
w:  sâ *  *  *  *  *  *  *  *  *  rı *  na  *  necm_  | 
z4 A2_1/4B2 c4 d2e4d2 edcd c2de d2e6 z4  | \
w:  i  *  *  *  *  *  se *  *  *  *  her  *  ül  | 
g8 g2^f2 g2a2 g2f2 g4 a2_1/4b2 a2g2 f2e2 e2ba  | 
w:  ker  *  *  *  *  *  *  mi  de *  sem   | 
a_1/4ba2 g2^f2 e6=f2 e3d eddc d2e2 e8 z4  | \
w:  vay  *  *  *  *  *  *  *  *  *  *  *  *  câ nân_ ey    | 
d2e8-e2 e2=f2 e2d2 edcd c2d2 e8 z4  | 
w:  Ah  *  *  *  *  *  ger *  *  *  *  den_ i   | 
g3=f f3e e3d d2e2 d2c2 _3/4e2d2 c2_1/4B2 B2c2 B2A2 A4  | \
w:  sâ *  *  *  *  *  *  *  *  *  fı *  na  *  nûr_  | 
z4 ^F2G2 A2_1/4B2 d2c4B2 B2A4G2 A2G4GF F4  | 
w:  i  *  *  *  *  meh_ *  i  *  *  en  | 
c2_1/4B2 c2d2 c2d2 c2d2 c2B2 A2G2 A2B2 A2G2 G2^F2 c2BA  | 
w:  ver  *  *  *  *  *  *  *  *  *  *  *  mi  de sem   | 
A2G4G^F F8 z8 z2c_3/4d c_1/4BAB c4 z4  | z24  | \
w:  vay   *  *  *  *  SAZ  |  | 
c4c4_3/4d4 c2_1/4B2c4z4  | 
w:  Â râ yîş_ i  *  bezm_  | 
e2=f2e2f2d4 a4g2f2e2_3/4d2  | c3_3/4de3dd3c c2_1/4B2e4d2c2  | 
w:  i  *  *  *  tâ râ bın   |  gel *  *  *  di  *  za *  ma  | 
_1/4B4c12z8  | d4e4e4 e2d2a2g2=f2e2  | \
w:  nı    |  Vakt_ i  fe râ *  hın   | 
e3dd3cc3_1/4B B3AA4z4  | 
w:  ol *  *  *  du  *  be *  dî  | 
^F3GA2_1/4B2d3c c3BB2A4G2  | AG^F^EF8 z4^c4d4  | \
w:  dâr_ *  *  *  ı  *  ni *  şâ  |  nı   *  *  *  *  Ah   | 
d4d4d4 d4d2^c2_7/8BAB2  | 
w:  teb dîl_ i  ma kam   | 
^c6_7/8B2e2d2 c2B2A4z4  | a2g2=f2e2e2d2 d2^c2c3_7/8Be2dc  | 
w:  ey *  le *  ye *  lim   |  semt_ *  *  *  i  *  Bo *  ğa  | 
_7/8B4^c12z8  | d4e4e4 e2d2a2g2=f2e2  | \
w:  za    |  Pür  zevk_ e de *  lim   | 
e3dd3cc3_1/4B B3AA4z4  | 
w:  tâ  *  *  *  be  *  gül_ *  ü   | 
G3A_1/4B4d3c c3BB2A4G2  | AG^F^EF8 z4z8  | z40  | \
w:  cism_ *  *  i *  le  *  câ  |  nı    |  | 
d2e8-e2 e2=f2 e2d2 edcd c2d2 e8 z4  | 
w:  Ah  *  *  *  *  *  ger *  *  *  *  den_ i   | 
g3=f f3e e3d d2e2 d2c2 _3/4e2d2 c2_1/4B2 B2c2 B2A2 A4  | \
w:  sâ *  *  *  *  *  *  *  *  *  fı *  na  *  nûr_  | 
z4 ^F2G2 A2_1/4B2 d2c4B2 B2A4G2 A2G4GF F4  | 
w:  i  *  *  *  *  meh_ *  i  *  *  en  | 
c2_1/4B2 c2d2 c2d2 c2d2 c2B2 A2G2 A2B2 A2G2 G2^F2 c2BA  | 
w:  ver  *  *  *  *  *  *  *  *  *  *  *  mi  de sem   | 
A2G4G^F F8 z8 g4 ^f2^e2 f4 z4  | ^f18^e2 a2g2 g2f2 f2e2 f4 z4  | 
w:  vay  *  *  *  *  gel  câ *  nım    |  Ah  *  bu *  la *  mam   | 
e2^f2 e2f2 g2f2 _1/4b2a4b2 a2g2 g2f2 g2f2 e2d2 e4  | \
w:  tavr_ *  *  *  *  *  *  *  *  ı  *  pe *  rî  | 
z4 c2d2 c2_1/4B2 g2=f2 e2d2 d2cd c2B2 c3B A4 z4  | 
w:  şâ *  *  *  *  *  *  *  nı *  *  na  *  tâ  | 
g8 g2^f2 g2a2 g2f2 g4 a2_1/4b2 a2g2 f2e2 e2ba  | \
w:  bir_ *  *  *  *  *  *  i  se *  zâ    | 
a_1/4ba2 g2^f2 e4 e2=f2 e2d2 edcd c2de e2e4e2 z4  | 
w:  Şûh_ *  *  *  *  *  i  *  *  *  sev  | 
g3=f f3e e3d d2e2 d2c2 _3/4e2d2 c2_1/4B2 B2c2 B2A2 A4  | \
w:  dâ *  *  *  *  *  *  *  *  *  yı  *  mı  *  yok  | 
z4 ^F2G2 A2=B2 d2c4_1/4B2 B2A4G2 A2G4GF F4  | 
w:  sa  *  *  *  *  *  *  dây_ *  ı  dil  | 
c2_1/4B2 c2d2 c2d2 c2d2 c2B2 A2G2 A2B2 A2G2 G2^F2 F4  | z24  | \
w:  ber  *  *  *  *  *  *  *  *  *  *  *  mi  de sem   |  | 
A2G2GAG^FF8z8  | 
w:  vay    | 
z40  | c4 c4 _3/4d4 c2_1/4B2 c4 z4 e2=f2 e2f2 =d4 a4  | \
w:  |  Â râ yîş_ i  *  bezm_ i  *  *  *  tâ râ  | 
g2=f2 e2_3/4d2 c3d e3d d3c c2_1/4B2 e4 d2c2 B4 c4  | 
w:  bın  *  *  *  gel *  *  *  di  *  za *  ma *  *  nı    | 
c8 z8 d4 e4 e4 e2d2 a2g2 =f2e2  | \
w:  *  Vakt_ i  fe râ *  hın   | 
e3d d3c c3_1/4B B3A A4 z4 ^F3G A2B2 d3c c3B  | 
w:  ol *  *  *  du  *  be *  dî dâr_ *  *  *  ı  *  ni  | 
_1/4B2A4G2 AG^F^E F8 z4 ^c4 d4 d4 d4  | \
w:  şâ *  *  nı   *  *  *  *  Ah  *  teb dîl_  | 
d4 d4 d2^c2 _7/8BAB2 c6B2 e2d2 c2B2 A4 z4  | 
w:  i  ma kam  *  *  *  *  ey *  le *  ye *  lim   | 
a2g2 =f2e2 e2d2 d2^c2 c3_7/8B e2dc B4 c12  | \
w:  semt_ *  *  *  i  *  Bo *  ğa *  *  *  *  za    | 
z8 d4 e4 e4 e2d2 a2g2 =f2e2 e3d d3c  | 
w:  Pür  zevk_ e de *  lim  *  *  *  tâ   | 
c3_1/4B B3A A4 z4 G3A B4 d3c c3B B2A4G2  | \
w:  be  *  gül_ *  ü  cism_ *  *  i *  le  *  câ  | 
AG^F^E F8 z4 z8 |
w:  nı    | 


